/* XPM */
static const char *dmxmh_32[] = {
"32 32 7 1 0 0",
"  c #000000",
"! c #050000",
"# c #FF0000",
"$ c #030000",
"% c #00FF00",
"& c #FFFFFF",
"' c None",
"                                ",
"                                ",
"                                ",
"                                ",
"                                ",
"                                ",
"    %%%%  %%%%                  ",
"    %%%%  %%%%                  ",
"    %%%%  %%%%                  ",
"    %%%%  %%%%                  ",
"    %%%%%%%%%%                  ",
"    %%%%%%%%%%                  ",
"    %%  %%  %%  ##    ##        ",
"    %%  %%  %%  ##    ##        ",
"    %%  %%  %%  ##    ##        ",
"    %%  %%  %%  ##    ##        ",
"    %%      %%  ##    ##        ",
"    %%      %%  ##    ##        ",
"    %%      %%  ########        ",
"    %%      %%  ########        ",
"                ##    ##        ",
"                ##    ##        ",
"                ##    ##        ",
"                ##    ##        ",
"                ##    ##        ",
"                ##    ##        ",
"                                ",
"                                ",
"                                ",
"                                ",
"                                ",
"                                ",
};